X: 11142
M: 2/4
L: 1/16
K: A
e2e2 c2c2 | A2A2 (A/B/c2)z | d2d2 c3A | G>AB>c B2 zB |\
e2e2c2c2 | A2A2 A/B/c2z | d2d2c3A | B>AB>c A2 ze |
e2e2c2c2 | A2A2 A/B/c2z | d2d2c3A | B>AB>c A2 :|


